X:1
T:The Vicar and the Frog
M:4/4
L:1/8
K:C
 z4 z2 E2| C2 EE GG GG| A2 F2 GG GG| C E2 G G3 G| E2 D2 C2 CC| CC EE G2 GG|\
 A2 F2 G G3| A2 F2 GG c2| c2 B2 c2 cc| dd dd d2 B2| dd d2 G2 cc| dd dd d2 cc|\
 B2 A2 G2 G2| c2 cc BG GG| A2 A2 G2 GG| E2 c2 c2 cc| c2 B2 c2 z2|
